papirus/48x48/apps/chrome-bikioccmkafdpakkkcpdbppfkghcmihk-Default.svg

<?xml version="1.0" encoding="UTF-8" standalone="no"?>
<svg
   xmlns:dc="http://purl.org/dc/elements/1.1/"
   xmlns:cc="http://creativecommons.org/ns#"
   xmlns:rdf="http://www.w3.org/1999/02/22-rdf-syntax-ns#"
   xmlns:svg="http://www.w3.org/2000/svg"
   xmlns="http://www.w3.org/2000/svg"
   id="svg2"
   viewBox="0 0 48 48.000001"
   version="1.1"
   width="48"
   height="48">
  <metadata
     id="metadata51">
    <rdf:RDF>
      <cc:Work
         rdf:about="">
        <dc:format>image/svg+xml</dc:format>
        <dc:type
           rdf:resource="http://purl.org/dc/dcmitype/StillImage" />
        <dc:title></dc:title>
      </cc:Work>
    </rdf:RDF>
  </metadata>
  <defs
     id="defs4" />
  <path
     id="path37"
     d="m 23.994141,4 c -0.569981,0.00422 -1.139512,0.031591 -1.707032,0.082031 -0.411401,0.03259 -0.814928,0.085152 -1.21875,0.140625 -0.214049,0.027311 -0.427619,0.057914 -0.640625,0.091797 -0.575432,0.096959 -1.140262,0.2194674 -1.697265,0.3613281 -0.03648,0.00902 -0.07294,0.018131 -0.109375,0.027344 C 10.178608,6.9016156 4,14.125449 4,22.699219 c 1.01e-4,0.06216 0.0051,0.123462 0.00586,0.185547 C 4.0037835,22.923172 4.0018304,22.961583 4,23 c 0.00988,5.886983 3.0889636,11.409748 8,15 l 0,6 5.304688,-3.121094 C 19.452756,41.612859 21.717236,41.992034 24,42 34.639034,41.98754 43.405682,34.064594 43.949219,23.970703 c 0.01591,-0.221134 0.02754,-0.442861 0.03516,-0.666015 C 43.990441,23.203167 43.99565,23.101601 44,23 43.9988,22.95898 43.9975,22.91796 43.9961,22.876953 43.996689,22.817483 44,22.758819 44,22.699219 44,13.015091 36.123085,5.0331154 25.996094,4.0957031 25.442818,4.0470623 24.887649,4.0203464 24.332031,4.015625 24.2197,4.0138911 24.110829,4 23.998047,4 Z"
     style="fill:#2090ea;fill-opacity:1" />
  <path
     id="path4199"
     d="M 23.994141 4 A 20 19 0 0 0 22.287109 4.0820312 C 21.875708 4.1146211 21.472181 4.1671837 21.068359 4.2226562 A 20 19 0 0 0 20.427734 4.3144531 C 19.852302 4.4114121 19.287472 4.5339205 18.730469 4.6757812 A 20 19 0 0 0 18.621094 4.703125 C 10.178608 6.9016156 4 14.125449 4 22.699219 C 4.000101 22.76138 4.0050982 22.822681 4.0058594 22.884766 A 20 19 0 0 0 4 23 A 20 19 0 0 0 4.0175781 23.318359 C 4.1987482 14.913387 10.304861 7.8687383 18.621094 5.703125 A 20 19 0 0 1 18.730469 5.6757812 C 19.287472 5.5339206 19.852302 5.4114121 20.427734 5.3144531 A 20 19 0 0 1 21.068359 5.2226562 C 21.472181 5.1671833 21.875708 5.1146212 22.287109 5.0820312 A 20 19 0 0 1 23.994141 5 L 23.998047 5 C 24.110829 5 24.2197 5.0138911 24.332031 5.015625 A 20 19 0 0 1 25.996094 5.0957031 C 35.999122 6.0216407 43.792775 13.824022 43.982422 23.347656 C 43.982946 23.333276 43.983884 23.319079 43.984375 23.304688 A 20 19 0 0 0 44 23 A 20 19 0 0 0 43.996094 22.876953 C 43.996689 22.817483 44 22.758819 44 22.699219 C 44 13.015091 36.123085 5.0331154 25.996094 4.0957031 A 20 19 0 0 0 24.332031 4.015625 C 24.2197 4.0138911 24.110829 4 23.998047 4 L 23.994141 4 z "
     style="fill:#ffffff;fill-opacity:1;opacity:0.2" />
  <path
     id="path4139"
     d="M 43.982422 22.347656 C 43.974808 22.55625 43.964103 22.76383 43.949219 22.970703 C 43.405682 33.064594 34.639034 40.98754 24 41 C 21.717236 40.992034 19.452756 40.612859 17.304688 39.878906 L 12 43 L 12 44 L 17.304688 40.878906 C 19.452756 41.612859 21.717236 41.992034 24 42 C 34.639034 41.98754 43.405682 34.064594 43.949219 23.970703 C 43.965129 23.749569 43.976755 23.527841 43.984375 23.304688 C 43.990437 23.203167 43.99565 23.101601 44 23 C 43.9988 22.95898 43.997494 22.91796 43.996094 22.876953 C 43.996683 22.817483 44 22.758819 44 22.699219 C 44 22.580677 43.984772 22.465678 43.982422 22.347656 z M 4.0136719 22.400391 C 4.011977 22.500612 4 22.59862 4 22.699219 C 4.000101 22.761379 4.0050994 22.822681 4.0058594 22.884766 C 4.0037829 22.923172 4.0018304 22.961583 4 23 C 4.00988 28.886983 7.0889636 34.409748 12 38 L 12 37 C 7.2007283 33.491454 4.1592186 28.136404 4.0136719 22.400391 z "
     style="fill:#000000;fill-opacity:1;opacity:0.3" />
  <ellipse
     style="opacity:0.2;fill:none;fill-opacity:1;stroke:#000000;stroke-width:4;stroke-linecap:butt;stroke-linejoin:miter;stroke-miterlimit:4;stroke-dasharray:8, 4;stroke-dashoffset:0;stroke-opacity:1"
     id="ellipse4140"
     cx="24"
     cy="24"
     rx="14"
     ry="13" />
  <ellipse
     ry="13"
     rx="14"
     cy="23"
     cx="24"
     id="path4138"
     style="opacity:1;fill:none;fill-opacity:1;stroke:#ffffff;stroke-width:4;stroke-linecap:butt;stroke-linejoin:miter;stroke-miterlimit:4;stroke-dasharray:8,4;stroke-opacity:1;stroke-dashoffset:0" />
</svg>

<?xml version="1.0" encoding="UTF-8" standalone="no"?>
<svg id="svg2" xmlns:rdf="http://www.w3.org/1999/02/22-rdf-syntax-ns#" xmlns="http://www.w3.org/2000/svg" height="48" width="48" version="1.1" xmlns:cc="http://creativecommons.org/ns#" viewBox="0 0 48 48.000001" xmlns:dc="http://purl.org/dc/elements/1.1/">
 <metadata id="metadata51">
  <rdf:RDF>
   <cc:Work rdf:about="">
    <dc:format>image/svg+xml</dc:format>
    <dc:type rdf:resource="http://purl.org/dc/dcmitype/StillImage"/>
    <dc:title/>
   </cc:Work>
  </rdf:RDF>
 </metadata>
 <path id="path37" fill="#2090ea" d="m23.994 4c-0.56998 0.00422-1.1395 0.031591-1.707 0.082031-0.4114 0.03259-0.81493 0.085152-1.2188 0.14062-0.21405 0.027311-0.42762 0.057914-0.64062 0.091797-0.57543 0.096959-1.1403 0.21947-1.6973 0.36133-0.03648 0.00902-0.07294 0.018131-0.10938 0.027344-8.442 2.1985-14.621 9.4219-14.621 17.996 0.000101 0.06216 0.0051 0.12346 0.00586 0.18555-0.0021 0.038-0.0041 0.077-0.0059 0.115 0.00988 5.887 3.089 11.41 8 15v6l5.3047-3.1211c2.148 0.734 4.412 1.113 6.695 1.121 10.639-0.012 19.406-7.935 19.949-18.029 0.01591-0.22113 0.02754-0.44286 0.03516-0.66602 0.006-0.102 0.012-0.203 0.016-0.305-0.001-0.041-0.002-0.082-0.004-0.123 0.001-0.06 0.004-0.118 0.004-0.178 0-9.684-7.877-17.666-18.004-18.603-0.553-0.0489-1.108-0.0757-1.664-0.0804-0.112-0.0017-0.221-0.0156-0.334-0.0156z"/>
 <path id="path4199" opacity=".2" d="m23.994 4a20 19 0 0 0 -1.707 0.082c-0.411 0.0326-0.815 0.0852-1.219 0.1407a20 19 0 0 0 -0.64 0.0918c-0.576 0.0969-1.141 0.2194-1.698 0.3613a20 19 0 0 0 -0.109 0.0273c-8.442 2.1985-14.621 9.4219-14.621 17.996 0.0001 0.062 0.0051 0.124 0.0059 0.186a20 19 0 0 0 -0.0059 0.115 20 19 0 0 0 0.0176 0.318c0.1811-8.405 6.2874-15.449 14.603-17.615a20 19 0 0 1 0.109 -0.0272c0.557-0.1419 1.122-0.2644 1.698-0.3613a20 19 0 0 1 0.64 -0.0918c0.404-0.0555 0.808-0.1081 1.219-0.1407a20 19 0 0 1 1.707 -0.082h0.004c0.113 0 0.222 0.0139 0.334 0.0156a20 19 0 0 1 1.664 0.0801c10.003 0.9259 17.797 8.7283 17.986 18.252 0.001-0.015 0.002-0.029 0.002-0.043a20 19 0 0 0 0.016 -0.305 20 19 0 0 0 -0.004 -0.123c0.001-0.06 0.004-0.118 0.004-0.178 0-9.684-7.877-17.666-18.004-18.603a20 19 0 0 0 -1.664 -0.0804c-0.112-0.0017-0.221-0.0156-0.334-0.0156h-0.004z" fill="#fff"/>
 <path id="path4139" opacity=".2" d="m43.982 23.348c-0.0076 0.20859-0.01832 0.41617-0.0332 0.62305-0.543 10.094-9.31 18.017-19.949 18.029-2.2828-0.008-4.5472-0.38714-6.6953-1.1211l-5.305 3.121v1l5.3047-3.1211c2.148 0.734 4.412 1.113 6.695 1.121 10.639-0.012 19.406-7.935 19.949-18.029 0.01591-0.22113 0.02754-0.44286 0.03516-0.66602 0.006-0.102 0.012-0.203 0.016-0.305-0.001-0.041-0.003-0.082-0.004-0.123 0.001-0.06 0.004-0.118 0.004-0.178 0-0.11854-0.01523-0.23354-0.01758-0.35156zm-39.968 0.052c-0.0017 0.101-0.0137 0.199-0.0137 0.299 0.000101 0.06216 0.0051 0.12346 0.00586 0.18555-0.0021 0.038-0.0041 0.077-0.0059 0.115 0.00988 5.887 3.089 11.41 8 15v-1c-4.7993-3.509-7.8408-8.864-7.9863-14.6z"/>
 <ellipse id="ellipse4140" opacity=".2" rx="14" ry="13" stroke="#000" cy="24" cx="24" stroke-dasharray="8, 4" stroke-width="4" fill="none"/>
 <ellipse id="path4138" rx="14" ry="13" stroke="#fff" cy="23" cx="24" stroke-dasharray="8,4" stroke-width="4" fill="none"/>
</svg>
